X:2
T:Waldm\"archen-Walzer  CGF 5-
%%MIDI program 21
R:waltz
M:3/4
L:1/4
K:G %%MIDI gchordon
DG | "G"B3 | "C"AGE | ("G"D3 | D)GB | "D7"d3 | Ace | ("G"d3 | d)DG | 
B3 | "C"AGE | ("G"D3 | D)GB | "D"A2d | "A7"^cfe | "D"d>dd | "D7"z^c/2d/2 e/2f/2 | 
"G".g!>!B>d | .g!>!B>d | "D7"f/2f/2fe | c3 | .f !>!A>c | .f !>!A>c | "G"e/2e/2ed | B^c/2d/2 e/2f/2 | 
.g!>!B>d | .g!>!B>d | "G7"a/2a/2ag | "C"e3 | "D7"f/2f/2fe | "G"d/2B/2 e/2d/2 c/2B/2 | "D7"Azd | "G"Gzz || [K:C] 
"C"G,2C | C2E, | (G,3 | G,)zG, | G,2A, | A,2G, | ("G7"G,3 | F,2)B, | D2C | B,2A, | (F,3 | 
F,)zC | B,2A, | B,2A, | ("C"G,3 | G,)zz|| "C"G2c | c2E | (G3 | G)zG | "E7"^G2B | e2d | 
("Am"c3 | c)B/2c/2 d/2c/2 | "G7"B2A | G/2B/2 df | "C"e2G | c2e | "Dm"d2f | "G7"e2d | ("C"c3 | c)B/2c/2 d/2"_Fine"e/2 || [K:F] 
"F"f2A | A2B | "C7"A2G | G2d | c2E | GBd | ("F"c3 | c)=B/2c/2 d/2e/2 | 
f2e | "F7"g2f | "Bb"e2d | def | "F"c2A | "C7"A2G | "F"F3 | F =B/2c/2 d/2"_>Teil C"e/2 |] 
W:Parts: ABCDC
% wz06047

